!!!!SEGMENT: pl-wumfc--n53446--001-026_moniuszko-stanislaw--hrabina-no-21-chor-mysliwych.krn
!!!cenid: 18xx:4113
!!!COM: Moniuszko, Stanisław
!!!COM-rismID: pe30008351
!!!CDT: 1819/05/05-1872/06/04
!!!CNT: Polish
!!!OPR: Hrabina
!!!OTL: No. 21. Chór myśliwych
!!!OMV: 026
!!!PDT:
!!!AGN: Secular; Opera
!!!YEC: Copyright 2022 Narodowy Instytut Fryderyka Chopina (https://polishscores.org)
!!!YEM: License CC-BY-4.0 (https://creativecommons.org/licenses/by/4.0)
!!!SMS-siglum: PL-Wumfc
!!!SMS-shelfmark: N53446
!!!SMS-shelfwork: 001-026 M
!!!SMS-variant:
!!!SMS-altvar:
!!!NIFC-rismSourceID: 1001165649
!!!NIFC-rismChildID: 1001165649
!!!NIFC-islandoraID: pl-wumfc:6884
!!!URL-pdf-islandora: https://repozytorium.nifc.pl/islandora/object/pl-wumfc%3A6884/datastream/PDF/view
!!!URL-scan: https://polish.musicsources.pl/pl/lokalizacje/galeria/druki-muzyczne/12579 @EN{Scan on Polish Music Sources Website} @PL{Skany w portalu Dziedzictwo Muzyki Polskiej w otwartym dostępie}
!!!IIIF:
!!!ONB-nifc:
!!!AIN: 1 piano
!!!key: C
**kern	**fing	**kern	**text	**dynam
*part1	*	*part1	*	*
*staff2	*	*staff1	*	*
*I"[Piano.]	*	*I"[Piano.]	*	*
*Ipiano	*	*Ipiano	*	*
*ICklav	*	*ICklav	*	*
*clefF4	*	*clefG2	*	*
*k[]	*	*k[]	*	*
*C:	*	*C:	*	*
*M6/8	*	*M6/8	*	*
=1	=1	=1	=1	=1
!!LO:TX:B:a:t=Allegro.
!	!	!LO:TX:t=P:problem:cały tekst zapisany ponad pięciolinią	!	!
2.r	.	8.c/L	.	p
.	.	16c/K	.	.
.	.	8c/J	.	.
.	.	[4.g^/	.	.
=2	=2	=2	=2	=2
2.r	.	4g/]	.	.
.	.	8e/	.	.
.	.	4g/	.	.
.	.	8e/	.	.
=3	=3	=3	=3	=3
2.r	.	[2.g/	.	>
=4	=4	=4	=4	=4
2.r	.	2.g/]	.	]]
=5	=5	=5	=5	=5
16FF/LL	.	16aLL 16g/	.	.
16F/	.	16c/	.	.
16FF/	.	16a 16g/	.	.
16F/	.	16c/	.	.
16FF/	.	16a 16g/	.	.
16F/JJ	.	16c/JJ	.	.
16FF/LL	.	16aLL 16g/	.	.
16F/	.	16c/	.	.
16FF/	.	16a 16g/	.	.
16F/	.	16c/	.	.
16FF/	.	16a 16g/	.	.
16F/JJ	.	16c/JJ	.	.
=6	=6	=6	=6	=6
16FF/LL	.	8ccL 8a 8f'/	.	.
16F/	.	.	.	.
16FF/	.	8a 8f 8c'/	.	.
16F/	.	.	.	.
16FF/	.	8ccJ 8a 8f'/	.	.
16F/JJ	.	.	.	.
16FF/LL	.	8aL 8f 8c'/	.	.
16F/	.	.	.	.
16FF/	.	8cc 8a 8f'/	.	.
16F/	.	.	.	.
16FF/	.	8aJ 8f 8c'/	.	.
16F/JJ	.	.	.	.
!!LO:LB:g=original
=7	=7	=7	=7	=7
16AA\LL	.	16ccLL 16a/	.	<
16A\	.	16e/	.	.
16AA\	.	16cc 16a/	.	.
16A\	.	16e/	.	.
16AA\	.	16cc 16a/	.	.
16A\JJ	.	16e/JJ	.	.
16AA\LL	.	16ccLL 16a/	.	.
16A\	.	16e/	.	.
16AA\	.	16cc 16a/	.	.
16A\	.	16e/	.	.
16AA\	.	16cc 16a/	.	.
16A\JJ	.	16e/JJ	.	.
=8	=8	=8	=8	=8
16AA\LL	.	8eeL 8cc 8a'/	.	.
16A\	.	.	.	.
16AA\	.	8cc 8a 8e'/	.	.
16A\	.	.	.	.
16AA\	.	8eeJ 8cc 8a'/	.	.
16A\JJ	.	.	.	.
16AA\LL	.	8ccL 8a 8e'\	.	.
16A\	.	.	.	.
16AA\	.	8ee 8cc 8a'\	.	.
16A\	.	.	.	.
16AA\	.	8aaJ 8ee 8cc'\	.	.
16A\JJ	.	.	.	.
=9	=9	=9	=9	=9
16BB-X^/LL	.	16ggLL 16ee 16cc\	.	.
16AA/	.	16g\	.	.
16BB-/	.	16gg 16ee 16cc\	.	.
16AA/	.	16g\	.	.
16BB-/	.	16gg 16ee 16cc\	.	.
16AA/JJ	.	16g\JJ	.	.
16BB-/LL	.	16ggLL 16ee 16cc\	.	.
16AA/	.	16g\	.	.
16BB-/	.	16gg 16ee 16cc\	.	.
16AA/	.	16g\	.	.
16BB-/	.	16gg 16ee 16cc\	.	.
16AA/JJ	.	16g\JJ	.	.
=10	=10	=10	=10	=10
16BB-X/LL	.	8ggL 8ee 8cc'\	.	.
16AA/	.	.	.	.
16BB-/	.	8ccc 8gg 8ee'\	.	.
16AA/	.	.	.	.
16BB-/	.	8ggJ 8ee 8cc'\	.	.
16AA/JJ	.	.	.	.
16BB-/LL	.	8cccL 8gg 8ee'\	.	.
16AA/	.	.	.	.
16BB-/	.	8gg 8ee 8cc'\	.	.
16AA/	.	.	.	.
*	*below	*	*	*
16BB-/	1	8cccJ 8gg 8ee'\	.	.
16AA/JJ	4	.	.	.
!!LO:LB:g=original
=11	=11	=11	=11	=11
8AL 8AA'/	.	8cccL 8ff 8cc'\	.	.
8G 8GG'/	.	8ccc 8gg 8cc'\	.	.
8FJ 8FF'/	.	8cccJ 8aa 8cc'\	.	.
8EL 8EE'/	.	8cccL 8gg 8cc'\	.	.
8D 8DD'/	.	8ccc 8ff 8cc'\	.	.
8CJ 8CC'/	.	8cccJ 8ee 8cc'\	.	.
=12	=12	=12	=12	=12
8BBL 8BBB'/	.	8dddL 8gg 8dd'\	.	.
8GG 8GGG'/	.	8ggg 8bb 8gg'\	.	.
8BBJ 8BBB'/	.	8dddJ 8gg 8dd'\	.	.
8CL 8CC'/	.	8eeeL 8gg 8ee'\	.	.
8E 8EE'/	.	8ccc 8gg 8cc'\	.	.
8CJ 8CC'/	.	8eeeJ 8gg 8ee'\	.	.
=13	=13	=13	=13	=13
*	*	*8va	*	*
8GL 8GG'/	.	8ggg'>L 8ddd 8bb 8gg\	.	ff
8F#X 8FF#X'/	.	8ggg'> 8ccc 8aa\	.	.
8FnJ 8FFn'/	.	8ggg'>J 8ddd 8bb\	.	.
8EL 8EE'/	.	8ggg'>L 8ccc 8gg\	.	.
8D 8DD'/	.	8ggg'> 8ddd 8gg\	.	.
8CJ 8CC'/	.	8ggg'>J 8eee 8gg\	.	.
=14	=14	=14	=14	=14
8BBL 8BBB'/	.	8ggg'>L 8ddd 8gg\	.	.
8GG 8GGG'/	.	8ddd'> 8bb 8gg\	.	.
8BBJ 8BBB'/	.	8ggg'>J 8ddd 8gg\	.	.
8CL 8CC'/	.	8eee'>L 8ccc 8gg\	.	.
8E 8EE'/	.	8ccc'> 8gg\	.	.
8CJ 8CC'/	.	8eee'>J 8ccc 8gg\	.	.
=15	=15	=15	=15	=15
8GG/	.	8ggg'> 8ddd 8bb 8gg\	.	.
*	*	*X8va	*	*
8r	.	8r	.	.
16GLL 16GG/	.	16ggLL 16g\	.	.
16GJJ 16GG/	.	16ggJJ 16g\	.	.
4G 4GG/	.	4gg 4g\	.	.
16GLL 16GG/	.	16ggLL 16g\	.	.
16GJJ 16GG/	.	16ggJJ 16g\	.	.
!!LO:LB:g=original
=16	=16	=16	=16	=16
4G 4GG/	.	4gg 4g\	.	.
8r;	.	8r;	.	.
4r	.	4r	.	.
8G 8C\	.	8g 8e 8c/	Czy	mf
=17	=17	=17	=17	=17
8.GL 8.C\	.	8.gL 8.e 8.c/	kot,	.
16cK 16E\	.	16ccK 16g/	czy-	.
8cJ 8E\	.	8ccJ 8g/	-li	.
4c 4E\	.	4cc 4g/	wilk,	.
8d 8G\	.	8dd 8b 8g\	czy	.
=18	=18	=18	=18	=18
*	*	*^	*	*
(8eL 8c\	.	8eeL 8cc/	4g\	z wyż-	.
8d 8G\)	.	8dd 8b/	.	-łem	.
8cJ 8E\	.	8cc/J	8g\	z o-	.
8d 8G\	.	8ddL 8b 8g\	4.ryy	-ga-	.
8r	.	8g\	.	-rem,	.
*ped	*	*	*	*	*
8G 8GG^^/	.	8ggJ 8b 8g^^\	.	Lis,	ff
*	*	*v	*v	*	*
=19	=19	=19	=19	=19
*Xped	*	*	*	*
4d 4G^^\	.	4dd 4b 4g^^\	dzik,	.
*ped	*	*	*	*
8C 8CC^^/	.	8ee 8cc 8g^^\	kot,	.
*Xped	*	*	*	*
!	!	!LO:TX:t=P:problem:spiccato u dołu	!	!
4c 4G 4E^^\	.	4cc 4g 4e^^</	żbik,	.
*ped	*	*	*	*
!	!	!LO:TX:t=P:problem:spiccato u dołu	!	!
8G 8GG^^/	.	8dd 8b 8g 8f^^</	więc	.
=20	=20	=20	=20	=20
!	!	!LO:TX:t=P:problem:spiccato u dołu	!	!
8.BL 8.G^^\	.	8.gL 8.f 8.d^^</	cel	.
16BK 16G\	.	16gK 16f 16d/	os-	.
*Xped	*	*	*	*
8BJ 8G\	.	8gJ 8f 8d/	-tro	.
!	!	!LO:TX:t=P:problem:spiccato u dołu	!	!
8c 8G 8C^^\	.	8cc 8e^^</	mierz.	.
8r	.	8r	.	.
!	!	!LO:TX:t=P:problem:spiccato u dołu	!	!
8G 8C\	.	8g 8e 8c^^</	Nie	mf
!!LO:LB:g=original
=21	=21	=21	=21	=21
8.GL 8.C\	.	8.gL 8.e 8.c/	uj-	.
16cK 16E\	.	16ccK 16g/	-dzie	.
8cJ 8E\	.	8ccJ 8g/	ni	.
4c 4E\	.	4cc 4g/	bag-	.
8d 8G\	.	8dd 8b 8g\	-nem	.
=22	=22	=22	=22	=22
*	*	*^	*	*
(8eL 8c\	.	8eeL 8cc/	4g\	la-	.
8d 8G\)	.	8dd 8b/	.	-sem	.
8cJ 8E\	.	8cc/J	8g\	ni	.
8d 8G\	.	8ddL 8b 8g\	4.ryy	ja-	.
8r	.	8b\	.	-rem,	.
*ped	*	*	*	*	*
8G 8GG^^/	.	8ggJ 8b 8g^^\	.	cel,	ff
*	*	*v	*v	*	*
=23	=23	=23	=23	=23
*Xped	*	*	*	*
4d 4G^^\	.	4dd 4b 4g^^\	cel,	.
*ped	*	*	*	*
8C 8CC^^/	.	8ee 8cc 8g^^\	pal,	.
*Xped	*	*	*	*
!	!	!LO:TX:t=P:problem:spiccato u dołu	!	!
4c 4G 4E^^\	.	4cc 4g 4e^^</	pal,	.
*ped	*	*	*	*
!	!	!LO:TX:t=P:problem:spiccato u dołu	!	!
8G 8GG^^/	.	8dd 8b 8g 8f^^</	i	.
=24	=24	=24	=24	=24
!	!	!LO:TX:t=P:problem:spiccato u dołu	!	!
8.BL 8.G^^\	.	8.gL 8.f 8.d^^</	ledz	.
16BK 16G\	.	16gK 16f 16d/	mu-	.
*Xped	*	*	*	*
8BJ 8G\	.	8gJ 8f 8d/	-si	.
!	!	!LO:TX:t=P:problem:spiccato u dołu	!	!
8c 8G 8C^^\	.	8cc 8e^^</	zwierz.	.
8r	.	8r	.	.
8e 8A^^\	.	8ee 8cc 8a^^\	.	ff
=25	=25	=25	=25	=25
8.eL 8.A\	.	8.eeL 8.cc 8.a\	.	.
16eK 16A\	.	16eeK 16cc 16a\	.	.
8eJ 8A\	.	8eeJ 8cc 8a\	.	.
8.eL 8.A\	.	8.eeL 8.cc 8.a\	.	.
16eK 16A\	.	16eeK 16cc 16a\	.	.
8eJ 8A\	.	8eeJ 8cc 8a\	.	.
!!LO:PB:g=original
=26	=26	=26	=26	=26
8dL 8B 8A'>\	.	8ffL 8dd 8a'\	.	.
8e 8c 8A'>\	.	8ee 8cc 8a'\	.	.
8fJ 8d 8A'>\	.	8ddJ 8b 8a'\	.	.
8e 8c 8A\	.	8eeL 8cc 8a/	.	.
8r	.	8cc 8a/	.	.
*ped	*	*	*	*
8E 8EE/	.	8eeJ 8g#X 8e/	.	p
=27	=27	=27	=27	=27
*Xped	*	*	*	*
!	!	!LO:TX:t=P:problem:spiccato u dołu	!	!
4B 4E^^\	.	4b 4g#X 4e^^</	.	.
*ped	*	*	*	*
8A 8AA'\	.	8ee 8cc 8e'/	.	.
*Xped	*	*	*	*
!	!	!LO:TX:t=P:problem:spiccato u dołu	!	!
4c 4A^^\	.	4cc 4a 4e^^</	.	.
*ped	*	*	*	*
8E 8EE'/	.	8ee 8g#X 8e'/	.	.
=28	=28	=28	=28	=28
!	!	!LO:TX:t=P:problem:spiccato u dołu	!	!
8.dL 8.B 8.E^^\	.	8.bL 8.g#X 8.e^^</	.	.
*Xped	*	*	*	*
16cK 16A 16E\	.	16aK 16f#X 16e/	.	.
8BJ 8E\	.	8bJ 8g# 8e/	.	.
8c 8A\	.	8cc 8a 8e/	.	.
8r	.	8r	.	.
8AA 8AAA/	.	8ee 8cc 8a\	.	ff
=29	=29	=29	=29	=29
8AL 8AA/	.	8.eeL 8.cc 8.a 8.e/	.	.
8G#X 8GG#X/	.	.	.	.
.	.	16eeK 16cc 16a 16e/	.	.
8GnJ 8GGn/	.	8eeJ 8cc 8a 8e/	.	.
8F#XL 8FF#X/	.	8eeL 8cc 8a 8e/	.	.
8Fn 8FFn/	.	8ee 8cc 8a 8e/	.	.
8EJ 8EE/	.	8eeJ 8cc 8a 8e/	.	.
=30	=30	=30	=30	=30
8DL 8DD'/	.	8ffL 8a 8f'/	.	.
8E 8EE'/	.	8ee 8cc 8a 8e'/	.	.
8FJ 8FF'/	.	8ddJ 8b 8a 8d'/	.	.
8E 8EE/	.	8eeL 8cc 8a 8e/	.	.
8r	.	8cc 8a/	.	.
*ped	*	*	*	*
8EE/	.	8eeJ 8g#X 8e/	.	p
!!LO:LB:g=original
=31	=31	=31	=31	=31
*Xped	*	*	*	*
4B 4E^\	.	4b 4g#X 4e^/	.	.
*ped	*	*	*	*
8AA/	.	8ee 8cc 8e/	.	.
*Xped	*	*	*	*
4c 4A^\	.	4cc 4a 4e^/	.	.
8c 8A\	.	8ee 8cc 8e/	.	.
=32	=32	=32	=32	=32
4d 4A 4D\	.	8.ff#L 8.cc 8.a\	.	.
.	.	16eeK 16cc 16a\	.	.
8d 8D\	.	8ff#J 8cc 8a\	.	.
8G 8GG/	.	8gg 8b 8g\	.	.
8r	.	8r	.	.
[8G\	.	8g/	.	mf
=33	=33	=33	=33	=33
8G] 8GG/	.	8.ggL 8.ee 8.g^\	.	.
8r	.	.	.	.
.	.	16ff#XK 16dd\	.	.
[8G\	.	8eeJ 8cc\	.	.
8G] 8GG/	.	8ddL 8b\	.	.
8r	.	8cc 8a\	.	.
8D 8DD'/	.	8ddJ 8b 8g\	.	.
=34	=34	=34	=34	=34
8DL 8DD'/	.	8ff#XL 8cc 8a'\	.	.
8D 8DD'/	.	8ee 8cc 8a'\	.	.
8DJ 8DD'/	.	8ff#J 8cc 8a'\	.	.
8G 8GG/	.	8gg 8b 8g\	.	.
8r	.	8r	.	.
[8G\	.	8g/	.	.
=35	=35	=35	=35	=35
8G] 8GG/	.	8.ggL 8.ee 8.g\	.	.
8r	.	.	.	.
.	.	16ff#XK 16dd\	.	.
[8G\	.	8eeJ 8cc\	.	.
8G] 8GG/	.	8ddL 8b\	.	.
8r	.	8cc 8a\	.	.
8D 8DD/	.	8ddJ 8b 8g\	.	ff
!!LO:LB:g=original
=36	=36	=36	=36	=36
8DL 8DD/	.	8ff#XL 8cc 8a'\	.	.
8D 8DD/	.	8ee 8cc 8a'\	.	.
8DJ 8DD/	.	8ff#J 8cc 8a'\	.	.
8GG 8GGG/	.	8gg 8b 8g\	.	.
8r	.	8r	.	.
16GGLL 16GGG'/	.	16gLL 16G'/	.	.
16GGJJ 16GGG'/	.	16gJJ 16G'/	.	.
=37	=37	=37	=37	=37
8GG 8GGG'/	.	8g 8G'/	.	.
8r	.	8r	.	.
16GGLL 16GGG'/	.	16gLL 16G'/	.	.
16GGJJ 16GGG'/	.	16gJJ 16G'/	.	.
8GG 8GGG'/	.	8g 8G'/	.	.
8r	.	8r	.	.
16GGLL 16GGG'/	.	16gLL 16G'/	.	.
16GGJJ 16GGG'/	.	16gJJ 16G'/	.	.
=38	=38	=38	=38	=38
8GG 8GGG'/	.	8g 8G'/	.	.
8r	.	8r	.	.
16GGLL 16GGG'/	.	16gLL 16G'/	.	.
16GGJJ 16GGG'/	.	16gJJ 16G'/	.	.
8GG 8GGG'/	.	8g 8G'/	.	.
8r	.	8r	.	.
*ped	*	*	*	*
8C 8GG 8CC'/	.	8gg 8ee 8cc 8g\	.	ff
=39	=39	=39	=39	=39
8.CL 8.GG 8.CC/	.	8.ggL 8.ee 8.cc 8.g\	.	.
16EK 16C 16GG 16EE/	.	16cccK 16gg 16cc\	.	.
8EJ 8C 8GG 8EE/	.	8cccJ 8gg 8cc\	.	.
4E 4C 4GG 4EE/	.	4ccc 4gg 4cc\	.	.
8G 8D 8GG/	.	8ddd 8bb 8gg 8dd\	.	.
=40	=40	=40	=40	=40
8.GL 8.E 8.C'/	.	8.eeeL 8.ccc 8.gg 8.ee\	.	.
16GK 16D 16GG'/	.	16dddK 16bb 16gg 16dd\	.	.
8GJ 8E 8C'/	.	8cccJ 8gg 8ee 8cc\	.	.
8G 8D 8GG/	.	8ddd 8bb 8gg 8dd\	.	.
8r	.	8r	.	.
*ped	*	*	*	*
8GG 8DD 8GGG/	.	8ggg 8bb 8gg\	.	.
!!LO:LB:g=original
=41	=41	=41	=41	=41
*Xped	*	*	*	*
4GG 4DD 4GGG/	.	4ddd 4bb 4gg 4dd^^\	.	.
*ped	*	*	*	*
8GG 8CC/	.	8eee 8ccc 8gg 8ee'\	.	.
*Xped	*	*	*	*
4GG 4CC/	.	4ccc 4gg 4ee 4cc\	.	.
*ped	*	*	*	*
8GG 8GGG/	.	8ddd 8gg 8ff 8dd\	.	.
=42	=42	=42	=42	=42
!LO:TX:t=P:problem:spiccato u dołu	!	!	!	!
8.GL 8.D 8.GG^^</	.	8.ggL 8.ff 8.dd 8.b^^\	.	.
*Xped	*	*	*	*
16GK 16GG/	.	16ggK 16ff 16dd 16b\	.	.
8GJ 8GG/	.	8ggJ 8ff 8dd 8b\	.	.
8C 8GG 8CC/	.	8ccc 8gg 8ee 8cc\	.	.
8r	.	8r	.	.
*ped	*	*	*	*
8C 8GG 8CC/	.	8gg 8ee 8cc 8g'\	.	.
=43	=43	=43	=43	=43
8.CL 8.GG 8.CC/	.	8.ggL 8.ee 8.cc 8.g^^\	.	.
16EK 16C 16GG 16EE/	.	16cccK 16gg 16cc\	.	.
8EJ 8C 8GG 8EE/	.	8cccJ 8gg 8cc\	.	.
*Xped	*	*	*	*
4E 4C 4GG 4EE/	.	4ccc 4gg 4cc\	.	.
8G 8D 8GG/	.	8ddd 8bb 8gg 8dd\	.	.
=44	=44	=44	=44	=44
8.GL 8.E 8.C'/	.	8.eeeL 8.ccc 8.gg 8.ee\	.	.
16GK 16D 16GG'/	.	16dddK 16bb 16gg 16dd'\	.	.
8GJ 8E 8C'/	.	8cccJ 8gg 8ee 8cc'\	.	.
8G 8D 8BB 8GG/	.	8ddd 8bb 8gg 8dd'\	.	.
8r	.	8r	.	.
*ped	*	*	*	*
8GG 8DD 8GGG/	.	8ggg 8bb 8gg'\	.	.
=45	=45	=45	=45	=45
*Xped	*	*	*	*
4GG 4DD 4GGG/	.	4ddd 4bb 4gg^^\	.	.
*ped	*	*	*	*
8GG 8CC/	.	8eee 8ccc 8gg 8ee\	.	.
*Xped	*	*	*	*
4GG 4CC/	.	4ccc 4gg 4ee^^\	.	.
*ped	*	*	*	*
8GG 8GGG/	.	8ddd 8gg 8ff 8dd\	.	.
!!LO:LB:g=original
=46||	=46||	=46||	=46||	=46||
*M3/8	*	*M3/8	*	*
8.dL 8.G\	.	8.ggL 8.ff 8.dd 8.b\	.	.
16dK 16G\	.	16ggK 16ff 16dd 16b\	.	.
*Xped	*	*	*	*
8dJ 8G\	.	8ggJ 8ff 8dd 8b\	.	.
=47||	=47||	=47||	=47||	=47||
*M6/8	*	*M6/8	*	*
8cL 8G 8C\	.	[4.ccc [4.ee [4.cc\	.	.
16GL 16E 16C\	.	.	.	.
16c\J	.	.	.	.
8GJ 8E 8C\	.	.	.	.
8cL 8G 8E 8C\	.	8ccc]L 8ee] 8cc\]	.	.
8c 8G\	.	8ee 8cc 8g\	.	.
8cJ 8G 8E\	.	8ggJ 8ee 8cc 8g\	.	.
=48	=48	=48	=48	=48
8cL 8G 8C\	.	[4.ccc [4.ee [4.cc\	.	.
16GL 16E 16C\	.	.	.	.
16c\J	.	.	.	.
8GJ 8E 8C\	.	.	.	.
8cL 8G 8E 8C\	.	8ccc]L 8ee] 8cc\]	.	.
8c 8G\	.	8ee 8cc 8g\	.	.
8cJ 8G 8E\	.	8ggJ 8ee 8cc 8g\	.	.
=49	=49	=49	=49	=49
8c 8G 8E 8C\	.	8ccc 8ee 8cc\	.	.
8r	.	8r	.	.
8r	.	8r	.	.
*clefG2	*	*	*	*
8cc 8g 8e 8c/	.	8eee 8ccc 8gg 8ee\	.	.
8r	.	8r	.	.
!LO:TX:t=P:problem:brak powrotu do klucza basowego	!	!	!	!
8r	.	8r	.	.
!LO:CL:ed	!	!	!	!
*clefF4	*	*	*	*
=50	=50	=50	=50	=50
[<4.C\ [<4.GG\ [4.CC\	.	[4.c [>4.G< [>4.E</	.	.
8C\] 8GG\] 8CC\]	.	8c] 8G<] 8E</]	.	.
8r	.	8r	.	.
8r	.	8r	.	.
==	==	==	==	==
*-	*-	*-	*-	*-
!!!system-decoration: {(p1)}
!!!RDF**kern: > = above
!!!RDF**kern: < = below
!!!ENC: Berenika Jozajtis
!!!END: 2022-08-23
!!!ENC: Kamil Watkowski
!!!END: 2022-09-29
